svg/logo/nfc_line.svg

<svg xmlns="http://www.w3.org/2000/svg" width="24" height="24" viewBox="0 0 24 24"><g fill="none" fill-rule="evenodd"><path d="M24,0 L24,24 L0,24 L0,0 L24,0 Z M12.5935,23.2578 L12.5819,23.2595 L12.5109,23.295 L12.4919,23.2987 L12.4767,23.295 L12.4057,23.2595 C12.3958,23.2564 12.387,23.259 12.3821,23.2649 L12.378,23.2758 L12.3609,23.7031 L12.3659,23.7235 L12.3769,23.7357 L12.4805,23.8097 L12.4953,23.8136 L12.5071,23.8097 L12.6107,23.7357 L12.6233,23.7197 L12.6267,23.7031 L12.6096,23.2758 C12.6076,23.2657 12.601,23.2593 12.5935,23.2578 Z M12.8584,23.1453 L12.8445,23.1473 L12.6598,23.2397 L12.6499,23.2499 L12.6472,23.2611 L12.6651,23.6906 L12.6699,23.7034 L12.6784,23.7105 L12.8793,23.8032 C12.8914,23.8069 12.9022,23.803 12.9078,23.7952 L12.9118,23.7812 L12.8777,23.1665 C12.8753,23.1546 12.8674,23.147 12.8584,23.1453 Z M12.143,23.1473 C12.1332,23.1424 12.1222,23.1453 12.1156,23.1526 L12.1099,23.1665 L12.0758,23.7812 C12.0751,23.7927 12.0828,23.8019 12.0926,23.8046 L12.1083,23.8032 L12.3092,23.7105 L12.3186,23.7024 L12.3225,23.6906 L12.3404,23.2611 L12.3372,23.2485 L12.3278,23.2397 L12.143,23.1473 Z"/><path fill="#09244B" d="M3,6 C3,4.34315 4.34315,3 6,3 L18,3 C19.6569,3 21,4.34315 21,6 L21,18 C21,19.6569 19.6569,21 18,21 L6,21 C4.34315,21 3,19.6569 3,18 L3,6 Z M12,19 L18,19 C18.5523,19 19,18.5523 19,18 L19,6 C19,5.44772 18.5523,5 18,5 L15.4649,5 C15.8052,5.58835 16,6.27143 16,7 L16,17 C16,17.4045 15.7564,17.7691 15.3827,17.9239 C15.009,18.0787 14.5789,17.9931 14.2929,17.7071 L10.7929,14.2071 C10.4024,13.8166 10.4024,13.1834 10.7929,12.7929 C11.1834,12.4024 11.8166,12.4024 12.2071,12.7929 L14,14.5858 L14,7 C14,5.89543 13.1046,5 12,5 L6,5 C5.44772,5 5,5.44772 5,6 L5,18 C5,18.5523 5.44772,19 6,19 L8.53513,19 C8.19479,18.4117 8,17.7286 8,17 L8,7 C8,6.59554 8.24364,6.2309 8.61732,6.07612 C8.99099,5.92134 9.42111,6.0069 9.70711,6.29289 L13.2071,9.79289 C13.5976,10.1834 13.5976,10.8166 13.2071,11.2071 C12.8166,11.5976 12.1834,11.5976 11.7929,11.2071 L10,9.41421 L10,17 C10,18.1046 10.8954,19 12,19 Z"/></g></svg>

<svg xmlns="http://www.w3.org/2000/svg" width="24" height="24"><g fill="none" fill-rule="evenodd"><path d="M24 0v24H0V0zM12.594 23.258l-.012.002-.071.035-.02.004-.014-.004-.071-.036c-.01-.003-.019 0-.024.006l-.004.01-.017.428.005.02.01.013.104.074.015.004.012-.004.104-.074.012-.016.004-.017-.017-.427c-.002-.01-.009-.017-.016-.018m.264-.113-.014.002-.184.093-.01.01-.003.011.018.43.005.012.008.008.201.092c.012.004.023 0 .029-.008l.004-.014-.034-.614c-.003-.012-.01-.02-.02-.022m-.715.002a.023.023 0 0 0-.027.006l-.006.014-.034.614c0 .012.007.02.017.024l.015-.002.201-.093.01-.008.003-.011.018-.43-.003-.012-.01-.01z"/><path fill="#09244B" d="M3 6a3 3 0 0 1 3-3h12a3 3 0 0 1 3 3v12a3 3 0 0 1-3 3H6a3 3 0 0 1-3-3zm9 13h6a1 1 0 0 0 1-1V6a1 1 0 0 0-1-1h-2.535c.34.588.535 1.271.535 2v10a1 1 0 0 1-1.707.707l-3.5-3.5a1 1 0 0 1 1.414-1.414L14 14.586V7a2 2 0 0 0-2-2H6a1 1 0 0 0-1 1v12a1 1 0 0 0 1 1h2.535A3.981 3.981 0 0 1 8 17V7a1 1 0 0 1 1.707-.707l3.5 3.5a1 1 0 0 1-1.414 1.414L10 9.414V17a2 2 0 0 0 2 2"/></g></svg>
